X:2076
T:Alouette variant
T:(för lyssning, noterad för normalstämning)
R:Omstämt
O:variant på fransk visa, Skåne
M:4/4
L:1/4
Q:160
%%printtempo 0
K:A
|: A>B cc | B/A/B/c/ AE | A>B cc | B/A/B/c/ A>z :|
[| A/B/c/d/ e/e/e | e/f/e/d/ c/B/A | e/e/e E/E/E | e/e/e E/E/E |
ef ed | cd cB | A>B cc | B/A/B/c/ AE | A>B cc | B/A/B/c/ A>z |]
(:musicend:)
Här noterad i normalstämning för att kunna lyssna på som midi.

(:music:)
